X:1
T: Fireflies
N:
C:
S:Tune is "Fryar Bungy"
A:
O:
R:
M:4/4
K:Em
I:speed 200
%W: A1
% voice 1 (1 lines, 34 notes)
K:Em
M:4/4
L:1/16
B4 |e4 g8 f2 e2 |^d4 f8 B4 |c4 A4 e2 f2 g4 |f4 e4 ^d4 b4 |a4 g2 f2 g4 G4 |B4 d8 c2 B2 |c4 a8 g2 f2 |f4 ^d4 e4 B4 |
%W: A2
% voice 1 (1 lines, 33 notes)
e4 g8 f2 e2 |^d4 f8 B4 |c4 A4 e2 f2 g4 |f4 e4 ^d4 b4 |a4 g2 f2 g4 G4 |B4 d8 c2 B2 |c4 a8 g2 f2 |f4 ^d4 e4 f4 |
%W: B1
% voice 1 (1 lines, 26 notes)
g4 g4 d4 d4 |g4 g12 |g8 f8 |e8 ^d4 f4 |g4 g4 f6 f2 |e4 e4 ^d6 B2 |c4 A4 B4 ^d4 |e4 e8 f4 |
%W: B2
% voice 1 (1 lines, 25 notes)
g4 g4 d4 d4 |g4 g12 |g8 f8 |e8 ^d4 f4 |g4 g4 f6 f2 |e4 e4 ^d6 B2 |c4 A4 B4 ^d4 |e4 e8 ||
